src/assets/icons/letters,fancy,serif-b.svg

<svg width="48" height="48" viewBox="0 0 48 48" fill="none" xmlns="http://www.w3.org/2000/svg">
<path d="M10.1134 37V35.48C10.9747 35.4547 11.6587 35.3787 12.1654 35.252C12.6974 35.1253 13.1027 34.91 13.3814 34.606C13.6854 34.302 13.888 33.8713 13.9894 33.314C14.0907 32.7567 14.1414 32.0347 14.1414 31.148V13.592C14.1414 12.7053 14.1034 11.996 14.0274 11.464C13.9514 10.9067 13.7867 10.476 13.5334 10.172C13.3054 9.84267 12.976 9.62733 12.5454 9.526C12.14 9.39933 11.5954 9.31067 10.9114 9.26V7.74H23.1094C26.9347 7.74 29.8734 8.36067 31.9254 9.602C34.0027 10.818 35.0414 12.566 35.0414 14.846C35.0414 17.8607 32.8754 19.9887 28.5434 21.23V21.382C29.9367 21.382 31.1907 21.5847 32.3054 21.99C33.4454 22.37 34.408 22.9147 35.1934 23.624C35.9787 24.3333 36.5867 25.1693 37.0174 26.132C37.448 27.0947 37.6634 28.146 37.6634 29.286C37.6634 30.578 37.3467 31.7053 36.7134 32.668C36.1054 33.6307 35.2187 34.4413 34.0534 35.1C31.7987 36.3667 28.6954 37 24.7434 37H10.1134ZM25.0094 34.682C29.088 34.682 31.1274 32.8453 31.1274 29.172C31.1274 26.9173 30.3927 25.2707 28.9234 24.232C28.1634 23.7 27.1754 23.32 25.9594 23.092C24.7687 22.864 23.2994 22.75 21.5514 22.75H19.7274V30.35C19.7274 31.9207 20.1327 33.0353 20.9434 33.694C21.754 34.3527 23.1094 34.682 25.0094 34.682ZM21.9694 20.47C23.1094 20.47 24.0974 20.3687 24.9334 20.166C25.7694 19.938 26.4787 19.6213 27.0614 19.216C28.2774 18.38 28.8854 17.0753 28.8854 15.302C28.8854 13.4527 28.4294 12.1227 27.5174 11.312C26.6054 10.476 25.136 10.058 23.1094 10.058H20.4114C19.9554 10.058 19.7274 10.2733 19.7274 10.704V20.47H21.9694Z" fill="black"/>
</svg>

<svg xmlns="http://www.w3.org/2000/svg" width="48" height="48" fill="none" viewBox="0 0 48 48">
  <path fill="#000" d="M10.113 37v-1.52c.862-.025 1.546-.101 2.052-.228.532-.127.938-.342 1.216-.646.304-.304.507-.735.608-1.292.102-.557.152-1.28.152-2.166V13.592c0-.887-.038-1.596-.114-2.128-.076-.557-.24-.988-.494-1.292-.228-.33-.557-.545-.988-.646-.405-.127-.95-.215-1.634-.266V7.74H23.11c3.826 0 6.764.62 8.816 1.862 2.078 1.216 3.116 2.964 3.116 5.244 0 3.015-2.166 5.143-6.498 6.384v.152c1.394 0 2.648.203 3.762.608 1.14.38 2.103.925 2.888 1.634a7.437 7.437 0 011.824 2.508c.431.963.646 2.014.646 3.154 0 1.292-.316 2.42-.95 3.382-.608.963-1.494 1.773-2.66 2.432-2.254 1.267-5.358 1.9-9.31 1.9h-14.63zm14.896-2.318c4.079 0 6.118-1.837 6.118-5.51 0-2.255-.734-3.901-2.204-4.94-.76-.532-1.748-.912-2.964-1.14-1.19-.228-2.66-.342-4.408-.342h-1.824v7.6c0 1.57.406 2.685 1.216 3.344.811.659 2.166.988 4.066.988zM21.97 20.47c1.14 0 2.128-.101 2.964-.304.836-.228 1.546-.545 2.128-.95 1.216-.836 1.824-2.14 1.824-3.914 0-1.85-.456-3.18-1.368-3.99-.912-.836-2.381-1.254-4.408-1.254h-2.698c-.456 0-.684.215-.684.646v9.766h2.242z"/>
</svg>
